.forestry/content/images/mail.svg

<svg clip-rule="evenodd" fill-rule="evenodd" stroke-linecap="round" stroke-linejoin="round" viewBox="0 0 24 24" xmlns="http://www.w3.org/2000/svg"><g fill="none" stroke="#9b9b9b" stroke-width="2" transform="translate(2 4)"><path d="m2 0h16c1.1 0 2 .9 2 2v12c0 1.1-.9 2-2 2h-16c-1.1 0-2-.9-2-2v-12c0-1.1.9-2 2-2z"/><path d="m20 2-10 7-10-7"/></g></svg>

<?xml version="1.0" encoding="UTF-8" standalone="no"?>
<!DOCTYPE svg PUBLIC "-//W3C//DTD SVG 1.1//EN" "http://www.w3.org/Graphics/SVG/1.1/DTD/svg11.dtd">
<svg width="100%" height="100%" viewBox="0 0 24 24" version="1.1" xmlns="http://www.w3.org/2000/svg" xmlns:xlink="http://www.w3.org/1999/xlink" xml:space="preserve" xmlns:serif="http://www.serif.com/" style="fill-rule:evenodd;clip-rule:evenodd;stroke-linecap:round;stroke-linejoin:round;">
    <g transform="matrix(1,0,0,1,2,4)">
        <g id="_--Prototype" serif:id="•-Prototype">
            <g id="Create-account">
                <g id="mail">
                    <path id="Shape" d="M2,0L18,0C19.1,0 20,0.9 20,2L20,14C20,15.1 19.1,16 18,16L2,16C0.9,16 0,15.1 0,14L0,2C0,0.9 0.9,0 2,0Z" style="fill:none;stroke:rgb(155,155,155);stroke-width:2px;"/>
                    <path id="Shape1" serif:id="Shape" d="M20,2L10,9L0,2" style="fill:none;stroke:rgb(155,155,155);stroke-width:2px;"/>
                </g>
            </g>
        </g>
    </g>
</svg>
